X: 6
T:Red-Haired Boy, The
M:4/4
L:1/8
R:Hornpipe
K:Amix
AG[|:EAAG ABcd|efec d2cd|eAAG ABcA|BGEF G2FG|!
EAAG ABcd|efec d2cd|eaab aged|1cABG A2AG:|2cABG A2ef|!
|:g2gf gfef|gfec d2cd|eAAG ABcA|BGEF G2FG|!
EAAG ABcd|efec d2cd|eaab aged|1cABG A2ef:|2cABG A2AG|]!
